assets/img/img-logo.svg

<svg width="110" height="20" viewBox="0 0 110 20" fill="none" xmlns="http://www.w3.org/2000/svg">
<g clip-path="url(#clip0_3_51)">
<path d="M18 9.99998C18 12.1217 17.1571 14.1565 15.6569 15.6568C14.1566 17.1571 12.1217 18 10 18C7.87827 18 5.84344 17.1571 4.34315 15.6568C2.84285 14.1565 2 12.1217 2 9.99998C2 7.87825 2.84285 5.84342 4.34315 4.34313C5.84344 2.84284 7.87827 1.99998 10 1.99998C10.76 1.99998 11.5 2.10998 12.2 2.30998L13.77 0.739984C12.5743 0.247549 11.2931 -0.0039275 10 -1.60998e-05C8.68678 -1.60998e-05 7.38642 0.258642 6.17317 0.761189C4.95991 1.26374 3.85752 2.00033 2.92893 2.92892C1.05357 4.80428 0 7.34782 0 9.99998C0 12.6521 1.05357 15.1957 2.92893 17.0711C3.85752 17.9996 4.95991 18.7362 6.17317 19.2388C7.38642 19.7413 8.68678 20 10 20C12.6522 20 15.1957 18.9464 17.0711 17.0711C18.9464 15.1957 20 12.6521 20 9.99998M5.91 8.07998L4.5 9.49998L9 14L19 3.99998L17.59 2.57998L9 11.17L5.91 8.07998Z" fill="#629E7F"/>
<path d="M27.216 4.8H29.504V16H27.216V4.8ZM28.608 6.736V4.8H30.832C31.7173 4.8 32.4693 4.944 33.088 5.232C33.7173 5.52 34.1973 5.93067 34.528 6.464C34.8587 6.99733 35.024 7.632 35.024 8.368C35.024 9.09333 34.8587 9.728 34.528 10.272C34.1973 10.8053 33.7173 11.216 33.088 11.504C32.4693 11.792 31.7173 11.936 30.832 11.936H28.608V10H30.832C31.44 10 31.92 9.86133 32.272 9.584C32.624 9.30667 32.8 8.90133 32.8 8.368C32.8 7.824 32.624 7.41867 32.272 7.152C31.92 6.87467 31.44 6.736 30.832 6.736H28.608ZM38.3216 8.64V16H36.2896V8.64H38.3216ZM40.4816 10.8C40.343 10.672 40.199 10.576 40.0496 10.512C39.911 10.4373 39.735 10.4 39.5216 10.4C39.2656 10.4 39.047 10.4693 38.8656 10.608C38.6843 10.7467 38.5456 10.944 38.4496 11.2C38.3643 11.4453 38.3216 11.744 38.3216 12.096L37.7456 11.52C37.7456 10.9333 37.8576 10.416 38.0816 9.968C38.3056 9.50933 38.599 9.14667 38.9616 8.88C39.3243 8.60267 39.6976 8.464 40.0816 8.464C40.3483 8.464 40.599 8.512 40.8336 8.608C41.079 8.704 41.2763 8.848 41.4256 9.04L40.4816 10.8ZM42.428 5.792C42.428 5.45067 42.5507 5.17333 42.796 4.96C43.0413 4.736 43.3347 4.624 43.676 4.624C44.0173 4.624 44.3053 4.736 44.54 4.96C44.7853 5.17333 44.908 5.45067 44.908 5.792C44.908 6.12267 44.7853 6.4 44.54 6.624C44.3053 6.848 44.0173 6.96 43.676 6.96C43.3347 6.96 43.0413 6.848 42.796 6.624C42.5507 6.4 42.428 6.12267 42.428 5.792ZM42.652 8.64H44.668V16H42.652V8.64ZM46.3717 12.32C46.3717 11.552 46.5477 10.88 46.8997 10.304C47.2624 9.728 47.7478 9.28 48.3558 8.96C48.9744 8.64 49.6731 8.48 50.4518 8.48C51.2304 8.48 51.9238 8.64 52.5318 8.96C53.1504 9.28 53.6358 9.728 53.9878 10.304C54.3504 10.88 54.5318 11.552 54.5318 12.32C54.5318 13.0773 54.3504 13.7493 53.9878 14.336C53.6358 14.912 53.1504 15.36 52.5318 15.68C51.9238 16 51.2304 16.16 50.4518 16.16C49.6731 16.16 48.9744 16 48.3558 15.68C47.7478 15.36 47.2624 14.912 46.8997 14.336C46.5477 13.7493 46.3717 13.0773 46.3717 12.32ZM48.4838 12.32C48.4838 12.736 48.5691 13.104 48.7398 13.424C48.9211 13.7333 49.1611 13.9787 49.4598 14.16C49.7584 14.3307 50.0891 14.416 50.4518 14.416C50.8144 14.416 51.1451 14.3307 51.4438 14.16C51.7424 13.9787 51.9771 13.7333 52.1478 13.424C52.3291 13.104 52.4198 12.736 52.4198 12.32C52.4198 11.904 52.3291 11.536 52.1478 11.216C51.9771 10.896 51.7424 10.6507 51.4438 10.48C51.1451 10.3093 50.8144 10.224 50.4518 10.224C50.0891 10.224 49.7584 10.3093 49.4598 10.48C49.1611 10.6507 48.9211 10.896 48.7398 11.216C48.5691 11.536 48.4838 11.904 48.4838 12.32ZM58.1185 8.64V16H56.0865V8.64H58.1185ZM60.2785 10.8C60.1398 10.672 59.9958 10.576 59.8465 10.512C59.7078 10.4373 59.5318 10.4 59.3185 10.4C59.0625 10.4 58.8438 10.4693 58.6625 10.608C58.4812 10.7467 58.3425 10.944 58.2465 11.2C58.1612 11.4453 58.1185 11.744 58.1185 12.096L57.5425 11.52C57.5425 10.9333 57.6545 10.416 57.8785 9.968C58.1025 9.50933 58.3958 9.14667 58.7585 8.88C59.1212 8.60267 59.4945 8.464 59.8785 8.464C60.1452 8.464 60.3958 8.512 60.6305 8.608C60.8758 8.704 61.0732 8.848 61.2225 9.04L60.2785 10.8ZM62.2249 5.792C62.2249 5.45067 62.3475 5.17333 62.5929 4.96C62.8382 4.736 63.1315 4.624 63.4729 4.624C63.8142 4.624 64.1022 4.736 64.3369 4.96C64.5822 5.17333 64.7049 5.45067 64.7049 5.792C64.7049 6.12267 64.5822 6.4 64.3369 6.624C64.1022 6.848 63.8142 6.96 63.4729 6.96C63.1315 6.96 62.8382 6.848 62.5929 6.624C62.3475 6.4 62.2249 6.12267 62.2249 5.792ZM62.4489 8.64H64.4649V16H62.4489V8.64ZM65.7206 8.64H70.2646V10.384H65.7206V8.64ZM66.9846 6.08H68.9846V16H66.9846V6.08ZM72.8398 13.712C72.8398 13.9253 72.8931 14.112 72.9998 14.272C73.1064 14.4213 73.2504 14.5387 73.4318 14.624C73.6238 14.6987 73.8318 14.736 74.0558 14.736C74.3758 14.736 74.6638 14.672 74.9198 14.544C75.1758 14.4053 75.3838 14.2133 75.5438 13.968C75.7038 13.712 75.7838 13.408 75.7838 13.056L76.0398 14.016C76.0398 14.4853 75.9064 14.88 75.6398 15.2C75.3838 15.52 75.0478 15.76 74.6318 15.92C74.2264 16.08 73.7998 16.16 73.3518 16.16C72.8931 16.16 72.4664 16.0693 72.0718 15.888C71.6771 15.7067 71.3571 15.4453 71.1118 15.104C70.8771 14.752 70.7598 14.3253 70.7598 13.824C70.7598 13.1093 71.0104 12.544 71.5118 12.128C72.0131 11.712 72.7224 11.504 73.6398 11.504C74.1091 11.504 74.5198 11.552 74.8718 11.648C75.2344 11.744 75.5384 11.8613 75.7838 12C76.0291 12.1387 76.2051 12.272 76.3118 12.4V13.36C76.0238 13.1467 75.6984 12.9867 75.3358 12.88C74.9838 12.7733 74.6104 12.72 74.2158 12.72C73.8958 12.72 73.6344 12.7627 73.4318 12.848C73.2291 12.9227 73.0798 13.0347 72.9838 13.184C72.8878 13.3227 72.8398 13.4987 72.8398 13.712ZM72.0398 10.72L71.2718 9.312C71.6558 9.10933 72.1251 8.91733 72.6798 8.736C73.2344 8.544 73.8531 8.448 74.5358 8.448C75.1651 8.448 75.7251 8.53867 76.2158 8.72C76.7064 8.90133 77.0904 9.168 77.3678 9.52C77.6451 9.86133 77.7838 10.2827 77.7838 10.784V16H75.7838V11.216C75.7838 11.0133 75.7518 10.8427 75.6878 10.704C75.6238 10.5547 75.5224 10.432 75.3838 10.336C75.2558 10.24 75.1011 10.1707 74.9198 10.128C74.7384 10.0853 74.5358 10.064 74.3118 10.064C73.9704 10.064 73.6451 10.1013 73.3358 10.176C73.0264 10.2507 72.7598 10.3413 72.5358 10.448C72.3118 10.5547 72.1464 10.6453 72.0398 10.72ZM80.0795 13.456C80.3888 13.744 80.6768 13.9787 80.9435 14.16C81.2102 14.3307 81.4608 14.4587 81.6955 14.544C81.9408 14.6293 82.1702 14.672 82.3835 14.672C82.6608 14.672 82.8742 14.6133 83.0235 14.496C83.1728 14.368 83.2475 14.1973 83.2475 13.984C83.2475 13.792 83.1835 13.632 83.0555 13.504C82.9382 13.3653 82.7622 13.2427 82.5275 13.136C82.2928 13.0293 81.9942 12.9173 81.6315 12.8C81.2902 12.672 80.9595 12.5227 80.6395 12.352C80.3195 12.1707 80.0528 11.936 79.8395 11.648C79.6368 11.3493 79.5355 10.9707 79.5355 10.512C79.5355 10.0747 79.6528 9.70667 79.8875 9.408C80.1222 9.09867 80.4368 8.86933 80.8315 8.72C81.2368 8.56 81.6848 8.48 82.1755 8.48C82.5915 8.48 82.9808 8.53333 83.3435 8.64C83.7062 8.74667 84.0422 8.89067 84.3515 9.072C84.6608 9.24267 84.9328 9.44533 85.1675 9.68L84.2555 10.96C83.9888 10.672 83.6688 10.4373 83.2955 10.256C82.9328 10.0747 82.5755 9.984 82.2235 9.984C81.9888 9.984 81.8022 10.032 81.6635 10.128C81.5355 10.2133 81.4715 10.3467 81.4715 10.528C81.4715 10.688 81.5355 10.832 81.6635 10.96C81.8022 11.0773 81.9942 11.184 82.2395 11.28C82.4955 11.376 82.7835 11.4933 83.1035 11.632C83.4982 11.7813 83.8608 11.952 84.1915 12.144C84.5328 12.3253 84.8048 12.5547 85.0075 12.832C85.2102 13.1093 85.3115 13.472 85.3115 13.92C85.3115 14.656 85.0715 15.232 84.5915 15.648C84.1115 16.0533 83.4502 16.256 82.6075 16.256C82.0848 16.256 81.6048 16.1867 81.1675 16.048C80.7408 15.9093 80.3515 15.728 79.9995 15.504C79.6582 15.2693 79.3488 15.0187 79.0715 14.752L80.0795 13.456ZM86.6948 3.52H88.6948V16H86.6948V3.52ZM91.3988 8.64H93.8788L90.7108 11.68L94.1988 16H91.7348L88.2308 11.68L91.3988 8.64ZM98.5273 16.16C97.7273 16.16 97.0286 16 96.4313 15.68C95.8339 15.36 95.3699 14.9173 95.0393 14.352C94.7193 13.776 94.5592 13.0987 94.5592 12.32C94.5592 11.5307 94.7193 10.8533 95.0393 10.288C95.3699 9.712 95.8339 9.26933 96.4313 8.96C97.0286 8.64 97.7326 8.48 98.5433 8.48C99.3539 8.48 100.042 8.62933 100.607 8.928C101.183 9.216 101.621 9.64267 101.919 10.208C102.218 10.7627 102.367 11.4347 102.367 12.224C102.367 12.32 102.362 12.4213 102.351 12.528C102.351 12.6347 102.346 12.72 102.335 12.784H95.7433V11.504H100.527L99.9673 12.24C100.01 12.176 100.047 12.0907 100.079 11.984C100.122 11.8667 100.143 11.7707 100.143 11.696C100.143 11.3333 100.074 11.024 99.9353 10.768C99.8073 10.512 99.6206 10.3093 99.3753 10.16C99.1299 10.0107 98.8419 9.936 98.5113 9.936C98.1059 9.936 97.7646 10.0267 97.4873 10.208C97.2206 10.3787 97.0126 10.64 96.8633 10.992C96.7246 11.3333 96.6499 11.76 96.6393 12.272C96.6393 12.7627 96.7086 13.1787 96.8473 13.52C96.9966 13.8613 97.2153 14.1227 97.5033 14.304C97.7913 14.4853 98.1379 14.576 98.5433 14.576C99.0019 14.576 99.3913 14.4907 99.7113 14.32C100.042 14.1387 100.314 13.872 100.527 13.52L102.335 14.08C101.951 14.7733 101.439 15.296 100.799 15.648C100.17 15.9893 99.4126 16.16 98.5273 16.16ZM105.962 8.64V16H103.93V8.64H105.962ZM108.122 10.8C107.984 10.672 107.84 10.576 107.69 10.512C107.552 10.4373 107.376 10.4 107.162 10.4C106.906 10.4 106.688 10.4693 106.506 10.608C106.325 10.7467 106.186 10.944 106.09 11.2C106.005 11.4453 105.962 11.744 105.962 12.096L105.386 11.52C105.386 10.9333 105.498 10.416 105.722 9.968C105.946 9.50933 106.24 9.14667 106.602 8.88C106.965 8.60267 107.338 8.464 107.722 8.464C107.989 8.464 108.24 8.512 108.474 8.608C108.72 8.704 108.917 8.848 109.066 9.04L108.122 10.8Z" fill="#E3E9F2"/>
</g>
<defs>
<clipPath id="clip0_3_51">
<rect width="110" height="20" fill="white"/>
</clipPath>
</defs>
</svg>

<svg xmlns="http://www.w3.org/2000/svg" width="110" height="20" fill="none" xmlns:v="https://vecta.io/nano"><g clip-path="url(#A)"><path d="M18 10a8 8 0 0 1-8 8 8 8 0 0 1-8-8 8 8 0 0 1 8-8 8.01 8.01 0 0 1 2.2.31L13.77.74A9.82 9.82 0 0 0 10 0a10 10 0 0 0-7.071 2.929 10 10 0 0 0 0 14.142A10 10 0 0 0 10 20a10 10 0 0 0 10-10M5.91 8.08L4.5 9.5 9 14 19 4l-1.41-1.42L9 11.17 5.91 8.08z" fill="#ff9200"/><path d="M27.216 4.8h2.288V16h-2.288V4.8zm1.392 1.936V4.8h2.224c.885 0 1.637.144 2.256.432.629.288 1.109.699 1.44 1.232s.496 1.168.496 1.904c0 .725-.165 1.36-.496 1.904-.331.533-.811.944-1.44 1.232-.619.288-1.371.432-2.256.432h-2.224V10h2.224c.608 0 1.088-.139 1.44-.416s.528-.683.528-1.216c0-.544-.176-.949-.528-1.216-.352-.277-.832-.416-1.44-.416h-2.224zm9.714 1.904V16H36.29V8.64h2.032zm2.16 2.16c-.139-.128-.283-.224-.432-.288-.139-.075-.315-.112-.528-.112-.256 0-.475.069-.656.208s-.32.336-.416.592c-.085.245-.128.544-.128.896l-.576-.576c0-.587.112-1.104.336-1.552.224-.459.517-.821.88-1.088.363-.277.736-.416 1.12-.416.267 0 .517.048.752.144a1.36 1.36 0 0 1 .592.432l-.944 1.76zm1.946-5.008a1.05 1.05 0 0 1 .368-.832 1.26 1.26 0 0 1 .88-.336c.341 0 .629.112.864.336a1.05 1.05 0 0 1 .368.832 1.08 1.08 0 0 1-.368.832c-.235.224-.523.336-.864.336a1.26 1.26 0 0 1-.88-.336 1.08 1.08 0 0 1-.368-.832zm.224 2.848h2.016V16h-2.016V8.64zm3.72 3.68c0-.768.176-1.44.528-2.016a3.76 3.76 0 0 1 1.456-1.344c.619-.32 1.317-.48 2.096-.48s1.472.16 2.08.48c.619.32 1.104.768 1.456 1.344.363.576.544 1.248.544 2.016 0 .757-.181 1.429-.544 2.016-.352.576-.837 1.024-1.456 1.344-.608.32-1.301.48-2.08.48s-1.477-.16-2.096-.48a3.76 3.76 0 0 1-1.456-1.344c-.352-.587-.528-1.259-.528-2.016zm2.112 0a2.31 2.31 0 0 0 .256 1.104 2.07 2.07 0 0 0 .72.736c.299.171.629.256.992.256s.693-.085.992-.256c.299-.181.533-.427.704-.736a2.2 2.2 0 0 0 .272-1.104 2.2 2.2 0 0 0-.272-1.104c-.171-.32-.405-.565-.704-.736s-.629-.256-.992-.256-.693.085-.992.256a1.91 1.91 0 0 0-.72.736 2.31 2.31 0 0 0-.256 1.104zm9.635-3.68V16h-2.032V8.64h2.032zm2.16 2.16a1.53 1.53 0 0 0-.432-.288c-.139-.075-.315-.112-.528-.112-.256 0-.475.069-.656.208s-.32.336-.416.592c-.085.245-.128.544-.128.896l-.576-.576c0-.587.112-1.104.336-1.552.224-.459.517-.821.88-1.088.363-.277.736-.416 1.12-.416.267 0 .517.048.752.144a1.36 1.36 0 0 1 .592.432l-.944 1.76zm1.946-5.008a1.05 1.05 0 0 1 .368-.832 1.26 1.26 0 0 1 .88-.336c.341 0 .629.112.864.336a1.05 1.05 0 0 1 .368.832 1.08 1.08 0 0 1-.368.832c-.235.224-.523.336-.864.336a1.26 1.26 0 0 1-.88-.336 1.08 1.08 0 0 1-.368-.832zm.224 2.848h2.016V16h-2.016V8.64zm3.272 0h4.544v1.744h-4.544V8.64zm1.264-2.56h2V16h-2V6.08zm5.855 7.632c0 .213.053.4.16.56.107.149.251.267.432.352.192.075.4.112.624.112.32 0 .608-.064.864-.192.256-.139.464-.331.624-.576.16-.256.24-.56.24-.912l.256.96c0 .469-.133.864-.4 1.184-.256.32-.592.56-1.008.72-.405.16-.832.24-1.28.24a3.03 3.03 0 0 1-1.28-.272c-.395-.181-.715-.443-.96-.784-.235-.352-.352-.779-.352-1.28 0-.715.251-1.28.752-1.696s1.211-.624 2.128-.624c.469 0 .88.048 1.232.144.363.096.667.213.912.352s.421.272.528.4v.96a3.09 3.09 0 0 0-.976-.48 3.84 3.84 0 0 0-1.12-.16c-.32 0-.581.043-.784.128-.203.075-.352.187-.448.336-.096.139-.144.315-.144.528zm-.8-2.992l-.768-1.408c.384-.203.853-.395 1.408-.576.555-.192 1.173-.288 1.856-.288.629 0 1.189.091 1.68.272s.875.448 1.152.8c.277.341.416.763.416 1.264V16h-2v-4.784c0-.203-.032-.373-.096-.512-.064-.149-.165-.272-.304-.368-.128-.096-.283-.165-.464-.208s-.384-.064-.608-.064c-.341 0-.667.037-.976.112s-.576.165-.8.272a3.67 3.67 0 0 0-.496.272zm8.04 2.736c.309.288.597.523.864.704.267.171.517.299.752.384.245.085.475.128.688.128.277 0 .491-.059.64-.176a.64.64 0 0 0 .224-.512.65.65 0 0 0-.192-.48c-.117-.139-.293-.261-.528-.368a8.64 8.64 0 0 0-.896-.336 8.29 8.29 0 0 1-.992-.448 2.54 2.54 0 0 1-.8-.704c-.203-.299-.304-.677-.304-1.136 0-.437.117-.805.352-1.104.235-.309.549-.539.944-.688a3.63 3.63 0 0 1 1.344-.24 4.12 4.12 0 0 1 1.168.16c.363.107.699.251 1.008.432.309.171.581.373.816.608l-.912 1.28c-.267-.288-.587-.523-.96-.704-.363-.181-.72-.272-1.072-.272-.235 0-.421.048-.56.144-.128.085-.192.219-.192.4 0 .16.064.304.192.432.139.117.331.224.576.32l.864.352c.395.149.757.32 1.088.512.341.181.613.411.816.688s.304.64.304 1.088c0 .736-.24 1.312-.72 1.728-.48.405-1.141.608-1.984.608-.523 0-1.003-.069-1.44-.208-.427-.139-.816-.32-1.168-.544a7.31 7.31 0 0 1-.928-.752l1.008-1.296zm6.615-9.936h2V16h-2V3.52zm4.704 5.12h2.48l-3.168 3.04L94.199 16h-2.464l-3.504-4.32 3.168-3.04zm7.129 7.52c-.8 0-1.499-.16-2.096-.48a3.48 3.48 0 0 1-1.392-1.328c-.32-.576-.48-1.253-.48-2.032 0-.789.16-1.467.48-2.032a3.34 3.34 0 0 1 1.392-1.328c.597-.32 1.301-.48 2.112-.48s1.499.149 2.064.448c.576.288 1.014.715 1.312 1.28.299.555.448 1.227.448 2.016 0 .096-.005.197-.016.304 0 .107-.005.192-.016.256h-6.592v-1.28h4.784l-.56.736c.043-.064.08-.149.112-.256.043-.117.064-.213.064-.288 0-.363-.069-.672-.208-.928-.128-.256-.315-.459-.56-.608a1.63 1.63 0 0 0-.864-.224c-.405 0-.747.091-1.024.272-.267.171-.475.432-.624.784-.139.341-.213.768-.224 1.28 0 .491.069.907.208 1.248.149.341.368.603.656.784s.635.272 1.04.272c.459 0 .848-.085 1.168-.256.331-.181.603-.448.816-.8l1.808.56c-.384.693-.896 1.216-1.536 1.568-.629.341-1.386.512-2.272.512zm7.435-7.52V16h-2.032V8.64h2.032zm2.16 2.16a1.51 1.51 0 0 0-.432-.288c-.138-.075-.314-.112-.528-.112a1.05 1.05 0 0 0-.656.208c-.181.139-.32.336-.416.592-.085.245-.128.544-.128.896l-.576-.576c0-.587.112-1.104.336-1.552.224-.459.518-.821.88-1.088.363-.277.736-.416 1.12-.416.267 0 .518.048.752.144.246.096.443.24.592.432l-.944 1.76z" fill="#fff"/></g><defs><clipPath id="A"><path fill="#fff" d="M0 0h110v20H0z"/></clipPath></defs></svg>
